SVG_Azure_All/Azure Media Services.svg

<?xml version="1.0" encoding="UTF-8" standalone="no"?>
<!-- Generated by Microsoft Visio, SVG Export Azure Media Services.svg Page-1 -->

<svg
   xmlns:dc="http://purl.org/dc/elements/1.1/"
   xmlns:cc="http://creativecommons.org/ns#"
   xmlns:rdf="http://www.w3.org/1999/02/22-rdf-syntax-ns#"
   xmlns:svg="http://www.w3.org/2000/svg"
   xmlns="http://www.w3.org/2000/svg"
   xmlns:sodipodi="http://sodipodi.sourceforge.net/DTD/sodipodi-0.dtd"
   xmlns:inkscape="http://www.inkscape.org/namespaces/inkscape"
   width="0.78736168in"
   height="0.79195648in"
   viewBox="0 0 56.689949 57.021085"
   xml:space="preserve"
   class="st8"
   version="1.1"
   id="svg87"
   sodipodi:docname="Azure Media Services.svg"
   style="font-size:12px;overflow:visible;color-interpolation-filters:sRGB;fill:none;fill-rule:evenodd;stroke-linecap:square;stroke-miterlimit:3"
   inkscape:version="0.92.5 (2060ec1f9f, 2020-04-08)"><metadata
   id="metadata91"><rdf:RDF><cc:Work
       rdf:about=""><dc:format>image/svg+xml</dc:format><dc:type
         rdf:resource="http://purl.org/dc/dcmitype/StillImage" /></cc:Work></rdf:RDF></metadata><sodipodi:namedview
   pagecolor="#ffffff"
   bordercolor="#666666"
   borderopacity="1"
   objecttolerance="10"
   gridtolerance="10"
   guidetolerance="10"
   inkscape:pageopacity="0"
   inkscape:pageshadow="2"
   inkscape:window-width="640"
   inkscape:window-height="480"
   id="namedview89"
   showgrid="false"
   inkscape:zoom="1.4157562"
   inkscape:cx="37.795268"
   inkscape:cy="38.009959"
   inkscape:window-x="0"
   inkscape:window-y="0"
   inkscape:window-maximized="0"
   inkscape:current-layer="svg87" />
	<style
   type="text/css"
   id="style2">
	<![CDATA[
		.st1 {fill:url(#grad0-6);stroke:none;stroke-linecap:butt;stroke-width:34}
		.st2 {fill:#0078d4;stroke:none;stroke-linecap:butt;stroke-width:34}
		.st3 {fill:#5ea0ef;stroke:none;stroke-linecap:butt;stroke-width:34}
		.st4 {fill:url(#grad0-14);stroke:none;stroke-linecap:butt;stroke-width:34}
		.st5 {fill:#c3f1ff;stroke:none;stroke-linecap:butt;stroke-width:34}
		.st6 {fill:url(#grad0-24);stroke:none;stroke-linecap:butt;stroke-width:34}
		.st7 {fill:#50e6ff;stroke:none;stroke-linecap:butt;stroke-width:34}
		.st8 {fill:none;fill-rule:evenodd;font-size:12px;overflow:visible;stroke-linecap:square;stroke-miterlimit:3}
	]]>
	</style>

	<defs
   id="Patterns_And_Gradients">
		<linearGradient
   id="grad0-6"
   x1="0"
   y1="155.94324"
   x2="30.093033"
   y2="155.94324"
   gradientTransform="scale(1.4880521,0.67201949)"
   gradientUnits="userSpaceOnUse">
			<stop
   offset="0"
   stop-color="#005ba1"
   stop-opacity="1"
   id="stop4" />
			<stop
   offset="0.365"
   stop-color="#004e8f"
   stop-opacity="1"
   id="stop6" />
			<stop
   offset="1"
   stop-color="#003067"
   stop-opacity="1"
   id="stop8" />
		</linearGradient>
		<linearGradient
   id="grad0-14"
   x1="0"
   y1="156.42868"
   x2="29.599"
   y2="156.42868"
   gradientTransform="scale(1.4848475,0.67346984)"
   gradientUnits="userSpaceOnUse">
			<stop
   offset="0"
   stop-color="#005ba1"
   stop-opacity="1"
   id="stop11" />
			<stop
   offset="0.45"
   stop-color="#004685"
   stop-opacity="1"
   id="stop13" />
			<stop
   offset="1"
   stop-color="#003067"
   stop-opacity="1"
   id="stop15" />
		</linearGradient>
		<linearGradient
   id="grad0-24"
   x1="0"
   y1="75.458343"
   x2="19.334684"
   y2="75.458343"
   gradientTransform="scale(0.7582229,1.3188734)"
   gradientUnits="userSpaceOnUse">
			<stop
   offset="0.26"
   stop-color="#50e6ff"
   stop-opacity="1"
   id="stop18" />
			<stop
   offset="0.42"
   stop-color="#79eaff"
   stop-opacity="1"
   id="stop20" />
			<stop
   offset="0.58"
   stop-color="#99edff"
   stop-opacity="1"
   id="stop22" />
			<stop
   offset="0.735"
   stop-color="#b0efff"
   stop-opacity="1"
   id="stop24" />
			<stop
   offset="0.875"
   stop-color="#bef1ff"
   stop-opacity="1"
   id="stop26" />
			<stop
   offset="1"
   stop-color="#c3f1ff"
   stop-opacity="1"
   id="stop28" />
		</linearGradient>
	</defs>
	<g
   id="g85"
   transform="translate(-34.000281,-33.997496)">
		<title
   id="title32">Page-1</title>
		<g
   id="group7820-1"
   transform="translate(34,-34.0786)">
			<title
   id="title34">Azure Media Services</title>
			<g
   id="group7821-2">
				<title
   id="title36">Sheet.7821</title>
				<g
   id="shape7822-3"
   transform="translate(8.14951,-36.7208)">
					<title
   id="title38">Sheet.7822</title>
					<path
   d="m 20.92,116.87 14.06,8.15 9.8,-5.7 A 28.2645,28.485 -180 0 0 0,113.3 a 32.209,32.4603 0 0 1 20.92,3.57 z"
   class="st1"
   id="path40"
   inkscape:connector-curvature="0"
   style="fill:url(#grad0-6);stroke:none;stroke-width:34;stroke-linecap:butt" />
				</g>
				<g
   id="shape7823-7"
   transform="translate(36.0539,-14.4142)">
					<title
   id="title43">Sheet.7823</title>
					<path
   d="m 6.89,102.72 -0.22,19.54 10.18,2.76 A 28.2645,28.485 -180 0 0 0,83.58 33.5689,33.8308 0 0 1 6.89,102.72 Z"
   class="st2"
   id="path45"
   inkscape:connector-curvature="0"
   style="fill:#0078d4;stroke:none;stroke-width:34;stroke-linecap:butt" />
				</g>
				<g
   id="shape7824-9"
   transform="translate(28.2902)">
					<title
   id="title48">Sheet.7824</title>
					<path
   d="M 14.63,105.16 0,113.68 0.23,125.02 A 28.2902,28.5109 -180 0 0 28.4,96.51 27.1072,27.3186 -180 0 0 27.48,89.74 30.7752,31.0153 0 0 1 14.63,105.16 Z"
   class="st3"
   id="path50"
   inkscape:connector-curvature="0"
   style="fill:#5ea0ef;stroke:none;stroke-width:34;stroke-linecap:butt" />
				</g>
				<g
   id="shape7825-11"
   transform="translate(3.93812,-0.186853)">
					<title
   id="title53">Sheet.7825</title>
					<path
   d="M 24.35,113.87 9.71,105.35 0,111.22 a 28.2259,28.4461 -180 0 0 43.95,6.09 31.8522,32.1007 0 0 1 -19.6,-3.44 z"
   class="st4"
   id="path55"
   inkscape:connector-curvature="0"
   style="fill:url(#grad0-14);stroke:none;stroke-width:34;stroke-linecap:butt" />
				</g>
				<g
   id="shape7826-15"
   transform="translate(0,-0.894206)">
					<title
   id="title58">Sheet.7826</title>
					<path
   d="M 13.64,106.06 13.86,85.85 3.84,83.19 A 28.1102,28.3295 -180 0 0 0,97.48 28.4413,28.6632 -180 0 0 21.01,125.02 32.762,33.0176 0 0 1 13.64,106.06 Z"
   class="st2"
   id="path60"
   inkscape:connector-curvature="0"
   style="fill:#0078d4;stroke:none;stroke-width:34;stroke-linecap:butt" />
				</g>
				<g
   id="shape7827-17"
   transform="translate(0,-20.9166)">
					<title
   id="title63">Sheet.7827</title>
					<path
   d="m 14.15,108.76 14.14,-8.24 A 34.0093,34.2746 -180 0 0 9.19,96.48 28.1552,28.3748 -180 0 0 0,117.51 a 28.9749,29.201 -180 0 0 1.01,7.51 32.9517,33.2087 0 0 1 13.14,-16.26 z"
   class="st3"
   id="path65"
   inkscape:connector-curvature="0"
   style="fill:#5ea0ef;stroke:none;stroke-width:34;stroke-linecap:butt" />
				</g>
				<g
   id="shape7828-19"
   transform="translate(13.6372,-11.3396)">
					<title
   id="title68">Sheet.7828</title>
					<path
   d="M 29.29,116.5 V 99.46 L 14.64,90.94 0,99.46 v 17.04 l 14.64,8.52 z"
   class="st5"
   id="path70"
   inkscape:connector-curvature="0"
   style="fill:#c3f1ff;stroke:none;stroke-width:34;stroke-linecap:butt" />
				</g>
				<g
   id="shape7829-21"
   transform="translate(13.6372,-11.3396)">
					<title
   id="title73">Sheet.7829</title>
					<path
   d="m 14.66,108.16 v 16.86 L 0,116.5 V 99.52 Z"
   class="st6"
   id="path75"
   inkscape:connector-curvature="0"
   style="fill:url(#grad0-24);stroke:none;stroke-width:34;stroke-linecap:butt" />
				</g>
				<g
   id="shape7830-25"
   transform="translate(28.2806,-11.3396)">
					<title
   id="title78">Sheet.7830</title>
					<path
   d="m 0,108.16 v 16.86 L 14.66,116.5 V 99.52 Z"
   class="st7"
   id="path80"
   inkscape:connector-curvature="0"
   style="fill:#50e6ff;stroke:none;stroke-width:34;stroke-linecap:butt" />
				</g>
			</g>
		</g>
	</g>
</svg>

<?xml version="1.0" encoding="UTF-8" standalone="no"?>
<!DOCTYPE svg PUBLIC "-//W3C//DTD SVG 1.1//EN" "http://www.w3.org/Graphics/SVG/1.1/DTD/svg11.dtd">
<!-- Generated by Microsoft Visio, SVG Export Azure Media Services.svg Page-1 -->
<svg xmlns="http://www.w3.org/2000/svg" xmlns:xlink="http://www.w3.org/1999/xlink" xmlns:ev="http://www.w3.org/2001/xml-events"
		width="1.73185in" height="1.73641in" viewBox="0 0 124.693 125.022" xml:space="preserve" color-interpolation-filters="sRGB"
		class="st8">
	<style type="text/css">
	<![CDATA[
		.st1 {fill:url(#grad0-6);stroke:none;stroke-linecap:butt;stroke-width:34}
		.st2 {fill:#0078d4;stroke:none;stroke-linecap:butt;stroke-width:34}
		.st3 {fill:#5ea0ef;stroke:none;stroke-linecap:butt;stroke-width:34}
		.st4 {fill:url(#grad0-14);stroke:none;stroke-linecap:butt;stroke-width:34}
		.st5 {fill:#c3f1ff;stroke:none;stroke-linecap:butt;stroke-width:34}
		.st6 {fill:url(#grad0-24);stroke:none;stroke-linecap:butt;stroke-width:34}
		.st7 {fill:#50e6ff;stroke:none;stroke-linecap:butt;stroke-width:34}
		.st8 {fill:none;fill-rule:evenodd;font-size:12px;overflow:visible;stroke-linecap:square;stroke-miterlimit:3}
	]]>
	</style>

	<defs id="Patterns_And_Gradients">
		<linearGradient id="grad0-6" x1="0" y1="0" x2="1" y2="0" gradientTransform="rotate(-0.10093496580791 0.5 0.5)">
			<stop offset="0" stop-color="#005ba1" stop-opacity="1"/>
			<stop offset="0.365" stop-color="#004e8f" stop-opacity="1"/>
			<stop offset="1" stop-color="#003067" stop-opacity="1"/>
		</linearGradient>
		<linearGradient id="grad0-14" x1="0" y1="0" x2="1" y2="0" gradientTransform="rotate(179.3084945769 0.5 0.5)">
			<stop offset="0" stop-color="#005ba1" stop-opacity="1"/>
			<stop offset="0.45" stop-color="#004685" stop-opacity="1"/>
			<stop offset="1" stop-color="#003067" stop-opacity="1"/>
		</linearGradient>
		<linearGradient id="grad0-24" x1="0" y1="0" x2="1" y2="0" gradientTransform="rotate(-73.177420271587 0.5 0.5)">
			<stop offset="0.26" stop-color="#50e6ff" stop-opacity="1"/>
			<stop offset="0.42" stop-color="#79eaff" stop-opacity="1"/>
			<stop offset="0.58" stop-color="#99edff" stop-opacity="1"/>
			<stop offset="0.735" stop-color="#b0efff" stop-opacity="1"/>
			<stop offset="0.875" stop-color="#bef1ff" stop-opacity="1"/>
			<stop offset="1" stop-color="#c3f1ff" stop-opacity="1"/>
		</linearGradient>
	</defs>
	<g>
		<title>Page-1</title>
		<g id="group7625-1" transform="translate(34,-34.0786)">
			<title>Azure Media Services</title>
			<g id="group7626-2">
				<title>Sheet.7626</title>
				<g id="shape7627-3" transform="translate(8.14951,-36.7208)">
					<title>Sheet.7627</title>
					<path d="M20.92 116.87 L34.98 125.02 L44.78 119.32 A28.2645 28.485 -180 0 0 -0 113.3 A32.209 32.4603 0 0 1 20.92
								 116.87 Z" class="st1"/>
				</g>
				<g id="shape7628-7" transform="translate(36.0539,-14.4142)">
					<title>Sheet.7628</title>
					<path d="M6.89 102.72 L6.67 122.26 L16.85 125.02 A28.2645 28.485 -180 0 0 -0 83.58 A33.5689 33.8308 0 0 1 6.89
								 102.72 Z" class="st2"/>
				</g>
				<g id="shape7629-9" transform="translate(28.2902,0)">
					<title>Sheet.7629</title>
					<path d="M14.63 105.16 L0 113.68 L0.23 125.02 A28.2902 28.5109 -180 0 0 28.4 96.51 A27.1072 27.3186 -180 0 0
								 27.48 89.74 A30.7752 31.0153 0 0 1 14.63 105.16 Z" class="st3"/>
				</g>
				<g id="shape7630-11" transform="translate(3.93812,-0.186853)">
					<title>Sheet.7630</title>
					<path d="M24.35 113.87 L9.71 105.35 L0 111.22 A28.2259 28.4461 -180 0 0 43.95 117.31 A31.8522 32.1007 0 0 1 24.35
								 113.87 Z" class="st4"/>
				</g>
				<g id="shape7631-15" transform="translate(0,-0.894206)">
					<title>Sheet.7631</title>
					<path d="M13.64 106.06 L13.86 85.85 L3.84 83.19 A28.1102 28.3295 -180 0 0 0 97.48 A28.4413 28.6632 -180 0 0 21.01
								 125.02 A32.762 33.0176 0 0 1 13.64 106.06 Z" class="st2"/>
				</g>
				<g id="shape7632-17" transform="translate(2.79776E-13,-20.9166)">
					<title>Sheet.7632</title>
					<path d="M14.15 108.76 L28.29 100.52 A34.0093 34.2746 -180 0 0 9.19 96.48 A28.1552 28.3748 -180 0 0 0 117.51
								 A28.9749 29.201 -180 0 0 1.01 125.02 A32.9517 33.2087 0 0 1 14.15 108.76 Z" class="st3"/>
				</g>
				<g id="shape7633-19" transform="translate(13.6372,-11.3396)">
					<title>Sheet.7633</title>
					<path d="M29.29 116.5 L29.29 99.46 L14.64 90.94 L0 99.46 L0 116.5 L14.64 125.02 L29.29 116.5 Z" class="st5"/>
				</g>
				<g id="shape7634-21" transform="translate(13.6372,-11.3396)">
					<title>Sheet.7634</title>
					<path d="M14.66 108.16 L14.66 125.02 L0 116.5 L0 99.52 L14.66 108.16 Z" class="st6"/>
				</g>
				<g id="shape7635-25" transform="translate(28.2806,-11.3396)">
					<title>Sheet.7635</title>
					<path d="M0 108.16 L0 125.02 L14.66 116.5 L14.66 99.52 L0 108.16 Z" class="st7"/>
				</g>
			</g>
		</g>
	</g>
</svg>
